en/template-builder/_images/index/quick_start.svg

<svg width="121" height="121" viewBox="0 0 121 121" fill="none" xmlns="http://www.w3.org/2000/svg">
<path fill-rule="evenodd" clip-rule="evenodd" d="M6.00366 72.6415C6.00366 42.5085 30.1981 18.0421 60.0057 18.0421C89.8134 18.0421 114.008 42.5085 114.008 72.6415C114.008 81.8147 111.769 90.4547 107.817 98.0413H12.1929C8.24097 90.4547 6.00366 81.8147 6.00366 72.6415Z" fill="url(#paint0_linear)"/>
<path fill-rule="evenodd" clip-rule="evenodd" d="M49.7471 84.7349L73.6401 68.1485C74.3335 67.6819 74.9788 68.175 74.4175 68.8949L56.6243 91.6147L49.7471 84.7349Z" stroke="#0055D9" stroke-width="2" stroke-miterlimit="79.8403" stroke-linecap="round" stroke-linejoin="round"/>
<path fill-rule="evenodd" clip-rule="evenodd" d="M50.4152 46.2151C36.9314 46.2151 25.0009 52.9086 17.7609 63.1351C17.3609 63.7084 16.8676 63.5616 17.2209 62.5882C23.0569 44.4151 40.1087 31.2419 60.2151 31.2419C83.8189 31.2419 103.212 49.3886 105.192 72.4817H87.9708C82.3749 57.1619 67.667 46.2151 50.4152 46.2151Z" stroke="#0055D9" stroke-width="2" stroke-miterlimit="79.8403" stroke-linecap="round"/>
<defs>
<linearGradient id="paint0_linear" x1="60.0037" y1="4.04101" x2="60.0037" y2="156.041" gradientUnits="userSpaceOnUse">
<stop offset="0.02" stop-color="#0064FF"/>
<stop offset="0.06" stop-color="#005FFF" stop-opacity="0.86"/>
<stop offset="0.11" stop-color="#005BFF" stop-opacity="0.72"/>
<stop offset="0.17" stop-color="#0057FF" stop-opacity="0.59"/>
<stop offset="0.23" stop-color="#0053FF" stop-opacity="0.48"/>
<stop offset="0.3" stop-color="#0051FF" stop-opacity="0.4"/>
<stop offset="0.38" stop-color="#004FFF" stop-opacity="0.33"/>
<stop offset="0.48" stop-color="#004DFF" stop-opacity="0.28"/>
<stop offset="0.61" stop-color="#004CFF" stop-opacity="0.26"/>
<stop offset="1" stop-color="#004CFF" stop-opacity="0.25"/>
</linearGradient>
</defs>
</svg>

<svg xmlns="http://www.w3.org/2000/svg" width="121" height="121" fill="none"><path fill="url(#a)" fill-rule="evenodd" d="M6.004 72.641c0-30.133 24.194-54.599 54.002-54.599 29.807 0 54.002 24.466 54.002 54.6 0 9.173-2.239 17.813-6.191 25.4H12.193c-3.952-7.587-6.19-16.227-6.19-25.4Z" clip-rule="evenodd"/><path stroke="#0055D9" stroke-linecap="round" stroke-linejoin="round" stroke-miterlimit="79.84" stroke-width="2" d="M49.747 84.735 73.64 68.148c.694-.466 1.339.027.778.747l-17.794 22.72-6.877-6.88Z" clip-rule="evenodd"/><path stroke="#0055D9" stroke-linecap="round" stroke-miterlimit="79.84" stroke-width="2" d="M50.415 46.215c-13.484 0-25.414 6.694-32.654 16.92-.4.573-.893.427-.54-.547 5.836-18.173 22.888-31.346 42.994-31.346 23.604 0 42.997 18.147 44.977 41.24H87.971c-5.596-15.32-20.304-26.267-37.556-26.267Z" clip-rule="evenodd"/><defs><linearGradient id="a" x1="60.004" x2="60.004" y1="4.041" y2="156.041" gradientUnits="userSpaceOnUse"><stop offset=".02" stop-color="#0064FF"/><stop offset=".06" stop-color="#005FFF" stop-opacity=".86"/><stop offset=".11" stop-color="#005BFF" stop-opacity=".72"/><stop offset=".17" stop-color="#0057FF" stop-opacity=".59"/><stop offset=".23" stop-color="#0053FF" stop-opacity=".48"/><stop offset=".3" stop-color="#0051FF" stop-opacity=".4"/><stop offset=".38" stop-color="#004FFF" stop-opacity=".33"/><stop offset=".48" stop-color="#004DFF" stop-opacity=".28"/><stop offset=".61" stop-color="#004CFF" stop-opacity=".26"/><stop offset="1" stop-color="#004CFF" stop-opacity=".25"/></linearGradient></defs></svg>
